X:24
T:L'homme a deux femmes, II
M:4/4
K:D
|: ag f a2 a fa | gece Aece | ag f a2 a fa | gecA B d2 z :: \
ABcd e a2 g | fecd efec | ABcd e a2 g | fecA B d2 d | \
ABcd e a2 g | fecd efec | ABcd e a2 g | fecA B d3 :|
